src/assets/daws/live.svg

<svg fill="none" height="172" viewBox="0 0 172 172" width="172" xmlns="http://www.w3.org/2000/svg"><path d="m10.3203 51.6001v72.2399h10.32v-72.2399zm20.64 0v72.2399h10.32v-72.2399zm20.64 0v72.2399h10.32v-72.2399zm20.64 0v72.2399h10.32v-72.2399zm20.64 0v10.32h72.2397v-10.32zm0 20.64v10.32h72.2397v-10.32zm0 20.64v10.3199h72.2397v-10.3199zm0 20.6399v10.32h72.2397v-10.32z" fill="#9ca3af"/></svg>

<svg width="172" height="172" viewBox="0 0 172 172" fill="none" xmlns="http://www.w3.org/2000/svg">
<path d="M10.3203 51.6001V123.84H20.6403V51.6001H10.3203ZM30.9603 51.6001V123.84H41.2803V51.6001H30.9603ZM51.6003 51.6001V123.84H61.9203V51.6001H51.6003ZM72.2403 51.6001V123.84H82.5603V51.6001H72.2403ZM92.8803 51.6001V61.9201H165.12V51.6001H92.8803ZM92.8803 72.2401V82.5601H165.12V72.2401H92.8803ZM92.8803 92.8801V103.2H165.12V92.8801H92.8803ZM92.8803 113.52V123.84H165.12V113.52H92.8803Z" fill="#9CA3AF"/>
</svg>
